X: 133
T:Jota pra Sotelino
M:3/4
L:1/8
Q:200
C:Muxicas
R:Vals
K:C
EFGE |: c2 EFGE | c2 EFGE | cBA cBA | F2 DEFD | B2 DEFD | B2 DEFD |BAG c
BA| G2 EFGE |cG EFGE |
cG EFGE |cBA cBA |G2 DEFD | BF DEFD | BF DEFD AGF GFD | E6- |1 E>"F."c E
FGE :|2 E2 B,CDB,| CDE DEG| 
"~"F2 EDC2- | C6- | C2 EFGE| FGA GAc| "~" B2 AGF2- | F6- | F2 DEFD | EFG
 FGB |: "~"A2GFE2- | E6- |
E>"F."c EFGE | FGA GAc |"~"B2 AGF2- | FG AGAc | "~"B2 AGF2- | FG AGAB :|
 "~"A2GFE2- |E6- |E>"F."c 

